!!!SOCIAL_FUNCTION:	war songs
!!!PDT:	1913
!!!OTL: No_92_War_Song.krn
!!!REG: Great_Lakes
!!!LANG: Non-Tone
!!!LING_GROUP: Algonquin
**kern	**kern
*staff2	*staff1
=1-	=1-
*clefF4	*clefF4
*k[b-e-a-d-g-]	*k[b-e-a-d-g-]
*M2/4	*M2/4
12GG-^/	16f\LK
.	8.f\J
12r	.
12GG-/	.
12GG-^/	8.f\L
12r	.
12GG-/	.
.	16e-\Jk
=2	=2
12GG-^/	4f\
12r	.
12GG-/	.
12GG-^/	4e-\
12r	.
12GG-/	.
=3	=3
2r	16f\LK
.	8.f\J
.	8.e-\L
.	16d-\Jk
=4	=4
2r	12d-\L
.	[12B-\
.	12B-\J]
.	8.B-\L
.	16B-\Jk
=5	=5
2r	4.B-\
.	8B-\
=6	=6
2r	2B-\
=7	=7
2r	16f\LK
.	8.f\J
.	8.f\L
.	16e-\Jk
=8	=8
2r	4f\
.	4e-\
=9	=9
2r	16f\LK
.	8.f\J
.	8.e-\L
.	16d-\Jk
=10	=10
2r	12d-\L
.	[12B-\
.	12B-\J]
.	8.B-\L
.	16B-\Jk
=11	=11
2r	4.B-\
.	8B-\
=12||	=12||
*M3/4	*M3/4
2.r	2.B-\
=13||	=13||
*M2/4	*M2/4
2r	16d-\LK
.	8.d-\J
.	8.d-\L
.	16d-\Jk
=14	=14
2r	4f\
.	4e-\
=15	=15
2r	16f\LK
.	8.f\J
.	8.e-\L
.	16d-\Jk
=16	=16
2r	4d-\
.	4B-\
=17||	=17||
*M3/4	*M3/4
2.r	16A-\LK
.	[8.A-\J
.	8.A-\L]
.	16B-\Jk
.	8.B-\L
.	16B-\Jk
=18||	=18||
*M2/4	*M2/4
2r	4B-\
.	4A-\
=19	=19
2r	16B-\LK
.	8.B-\J
.	8.F\L
.	16F\Jk
=20	=20
2r	4F\
.	[4E-\
=21	=21
2r	8E-\L]
.	8F\J
.	8E-\L
.	8D-\J
=22	=22
2r	4F\
.	4E-\
=23	=23
2r	16F\LK
.	8.F\J
.	8.D-\L
.	16D-\Jk
=24	=24
2r	12D-/L
.	12BB-/
.	12BB-/J
.	4BB-/
=25	=25
2r	4.BB-/
.	8BB-/
=26	=26
2r	2BB-/
==	==
*-	*-
